X:2069 
T:Untitled 
C:Traditional
O:Isle of Man
Z:Clague collection
B:Kiaull Vannin #69 
M:3/2 
L:1/2
K:G
G|B2A|B2A|AGF|G2G|d2A|B2c|d2 d|
(cB) A|B2G|c2B|A2A|A2d|cBA|G2||

